src/assets/images/logo.svg

<svg width="147" height="79" viewBox="0 0 147 79" fill="none" xmlns="http://www.w3.org/2000/svg">
<g clip-path="url(#clip0_1_231)">
<mask id="mask0_1_231" style="mask-type:luminance" maskUnits="userSpaceOnUse" x="-59" y="-33" width="260" height="148">
<path d="M200.426 -32.3565H-58.6759V114.595H200.426V-32.3565Z" fill="white"/>
</mask>
<g mask="url(#mask0_1_231)">
<path d="M45.0594 22.6823H50.174L64.8025 43.8541V22.6823H69.2153V50.6574H64.2762L49.4858 29.1046L49.4993 50.6574L45.0594 50.6438V22.6823Z" fill="#B2282F"/>
</g>
<mask id="mask1_1_231" style="mask-type:luminance" maskUnits="userSpaceOnUse" x="-59" y="-33" width="260" height="148">
<path d="M200.426 -32.3565H-58.6759V114.595H200.426V-32.3565Z" fill="white"/>
</mask>
<g mask="url(#mask1_1_231)">
<path d="M100.321 22.655H105.503L113.519 35.1051V35.1459L121.562 22.655H126.758V50.6302H122.345V29.4175L115.557 39.7994H111.508L104.734 29.4175L104.693 50.6302L100.24 50.6574L100.321 22.655Z" fill="#B2282F"/>
</g>
<mask id="mask2_1_231" style="mask-type:luminance" maskUnits="userSpaceOnUse" x="-59" y="-33" width="260" height="148">
<path d="M200.426 -32.3565H-58.6759V114.595H200.426V-32.3565Z" fill="white"/>
</mask>
<g mask="url(#mask2_1_231)">
<path d="M31.6455 22.7367L27.3406 22.6823L14.9928 50.6574H20.1883L22.8468 44.0174L24.5202 39.813L29.5403 27.9072L34.5334 39.813L36.2068 44.0174L38.8653 50.6574H44.0878L31.6455 22.7367Z" fill="#B2282F"/>
</g>
<mask id="mask3_1_231" style="mask-type:luminance" maskUnits="userSpaceOnUse" x="-59" y="-33" width="260" height="148">
<path d="M200.426 -32.3565H-58.6759V114.595H200.426V-32.3565Z" fill="white"/>
</mask>
<g mask="url(#mask3_1_231)">
<path d="M86.8666 22.9136L82.5348 22.6823L70.2004 50.6574H75.3825L78.041 44.0174L79.7143 39.813L84.7479 27.9072L89.7276 39.813L91.4009 44.0174L94.0594 50.6574H99.255L86.8666 22.9136Z" fill="#B2282F"/>
</g>
<mask id="mask4_1_231" style="mask-type:luminance" maskUnits="userSpaceOnUse" x="-59" y="-33" width="260" height="148">
<path d="M200.426 -32.3565H-58.6759V114.595H200.426V-32.3565Z" fill="white"/>
</mask>
<g mask="url(#mask4_1_231)">
<path d="M47.1376 55.896H45.8016V55.4742H48.9325V55.896H47.5965V59.5017H47.1376V55.896Z" fill="#B2282F"/>
</g>
<mask id="mask5_1_231" style="mask-type:luminance" maskUnits="userSpaceOnUse" x="-59" y="-33" width="260" height="148">
<path d="M200.426 -32.3565H-58.6759V114.595H200.426V-32.3565Z" fill="white"/>
</mask>
<g mask="url(#mask5_1_231)">
<mask id="mask6_1_231" style="mask-type:luminance" maskUnits="userSpaceOnUse" x="-59" y="-33" width="260" height="148">
<path d="M200.426 -32.3565H-58.6759V114.595H200.426V-32.3565Z" fill="white"/>
</mask>
<g mask="url(#mask6_1_231)">
<path d="M49.9176 55.4742H51.6315C52.1308 55.4742 52.5086 55.6239 52.765 55.8824C52.9675 56.0865 53.0754 56.3586 53.0754 56.6716V56.6852C53.0754 57.3519 52.6166 57.7465 51.9958 57.8553L53.2239 59.5017H52.6571L51.4965 57.937H51.483H50.3629V59.5017H49.9176V55.4742ZM51.591 57.5288C52.1847 57.5288 52.6166 57.2158 52.6166 56.6988V56.6852C52.6166 56.1817 52.2387 55.896 51.591 55.896H50.3629V57.5288H51.591Z" fill="#B2282F"/>
</g>
<mask id="mask7_1_231" style="mask-type:luminance" maskUnits="userSpaceOnUse" x="-59" y="-33" width="260" height="148">
<path d="M200.426 -32.3565H-58.6759V114.595H200.426V-32.3565Z" fill="white"/>
</mask>
<g mask="url(#mask7_1_231)">
<path d="M58.8108 55.4742H60.2008C61.4558 55.4742 62.3195 56.345 62.3195 57.4744V57.488C62.3195 58.6173 61.4558 59.5017 60.2008 59.5017H58.8108V55.4742ZM60.2008 59.0799C61.2129 59.0799 61.8606 58.3996 61.8606 57.5016V57.488C61.8606 56.6035 61.2129 55.896 60.2008 55.896H59.2696V59.0799H60.2008Z" fill="#B2282F"/>
</g>
<mask id="mask8_1_231" style="mask-type:luminance" maskUnits="userSpaceOnUse" x="-59" y="-33" width="260" height="148">
<path d="M200.426 -32.3565H-58.6759V114.595H200.426V-32.3565Z" fill="white"/>
</mask>
<g mask="url(#mask8_1_231)">
<path d="M63.8848 55.4742H63.4395V59.5017H63.8848V55.4742Z" fill="#B2282F"/>
</g>
<mask id="mask9_1_231" style="mask-type:luminance" maskUnits="userSpaceOnUse" x="-59" y="-33" width="260" height="148">
<path d="M200.426 -32.3565H-58.6759V114.595H200.426V-32.3565Z" fill="white"/>
</mask>
<g mask="url(#mask9_1_231)">
<path d="M65.1938 55.4742H65.6257L68.1357 58.6989V55.4742H68.5676V59.5017H68.2167L65.6392 56.1953V59.5017H65.1938V55.4742Z" fill="#B2282F"/>
</g>
<mask id="mask10_1_231" style="mask-type:luminance" maskUnits="userSpaceOnUse" x="-59" y="-33" width="260" height="148">
<path d="M200.426 -32.3565H-58.6759V114.595H200.426V-32.3565Z" fill="white"/>
</mask>
<g mask="url(#mask10_1_231)">
<path d="M69.6606 57.5016C69.6606 56.3858 70.4703 55.4062 71.6579 55.4062C72.3326 55.4062 72.751 55.5967 73.1423 55.9368L72.8454 56.277C72.5486 56.0048 72.1842 55.8144 71.6309 55.8144C70.7537 55.8144 70.1195 56.5627 70.1195 57.4608V57.4744C70.1195 58.4404 70.7267 59.148 71.6984 59.148C72.1572 59.148 72.5755 58.9711 72.8454 58.7398V57.7329H71.6309V57.3247H73.2773V58.9303C72.9129 59.2704 72.3596 59.5426 71.6714 59.5426C70.4298 59.5698 69.6606 58.6445 69.6606 57.5016Z" fill="#B2282F"/>
</g>
<mask id="mask11_1_231" style="mask-type:luminance" maskUnits="userSpaceOnUse" x="-59" y="-33" width="260" height="148">
<path d="M200.426 -32.3565H-58.6759V114.595H200.426V-32.3565Z" fill="white"/>
</mask>
<g mask="url(#mask11_1_231)">
<path d="M78.4188 58.9303C78.0544 59.3249 77.6361 59.5562 77.1098 59.5562C76.3945 59.5562 75.8547 59.1072 75.8547 58.4268V58.4132C75.8547 57.8826 76.2056 57.5016 76.8129 57.2567C76.543 56.9301 76.408 56.6988 76.408 56.3722V56.3586C76.408 55.828 76.8264 55.4062 77.4606 55.4062C78.0139 55.4062 78.4323 55.8144 78.4323 56.3178V56.3314C78.4323 56.8485 78.0814 57.175 77.4876 57.3791L78.4053 58.318C78.5807 58.0594 78.7426 57.7601 78.8776 57.4199L79.242 57.5968C79.0665 57.9778 78.8911 58.318 78.6617 58.6037L79.3634 59.3249L79.026 59.5834L78.4188 58.9303ZM78.1489 58.6445L77.0828 57.5288C76.5565 57.7329 76.3136 58.0458 76.3136 58.386V58.3996C76.3136 58.835 76.6509 59.1616 77.1503 59.1616C77.5281 59.1752 77.852 58.9711 78.1489 58.6445ZM78.0274 56.345C78.0274 56.0185 77.7845 55.7735 77.4606 55.7735C77.0963 55.7735 76.8534 56.0321 76.8534 56.3586V56.3722C76.8534 56.6035 76.9478 56.794 77.2582 57.107C77.771 56.9301 78.0274 56.6988 78.0274 56.345Z" fill="#B2282F"/>
</g>
<mask id="mask12_1_231" style="mask-type:luminance" maskUnits="userSpaceOnUse" x="-59" y="-33" width="260" height="148">
<path d="M200.426 -32.3565H-58.6759V114.595H200.426V-32.3565Z" fill="white"/>
</mask>
<g mask="url(#mask12_1_231)">
<path d="M81.8196 57.5016C81.8196 56.3586 82.6698 55.4062 83.8438 55.4062C84.5725 55.4062 85.0044 55.6647 85.3957 56.0457L85.0853 56.3722C84.748 56.0457 84.3836 55.8144 83.8303 55.8144C82.9532 55.8144 82.2919 56.5355 82.2919 57.4608V57.4744C82.2919 58.3996 82.9532 59.1344 83.8303 59.1344C84.3836 59.1344 84.7345 58.9167 85.1123 58.5493L85.4092 58.8486C85.0044 59.2704 84.5321 59.5562 83.8168 59.5562C82.6698 59.5698 81.8196 58.6581 81.8196 57.5016Z" fill="#B2282F"/>
</g>
<mask id="mask13_1_231" style="mask-type:luminance" maskUnits="userSpaceOnUse" x="-59" y="-33" width="260" height="148">
<path d="M200.426 -32.3565H-58.6759V114.595H200.426V-32.3565Z" fill="white"/>
</mask>
<g mask="url(#mask13_1_231)">
<path d="M86.1649 57.5016C86.1649 56.3858 86.9881 55.4062 88.2026 55.4062C89.4172 55.4062 90.2269 56.3722 90.2269 57.4744C90.2269 57.4744 90.2269 57.4744 90.2269 57.488C90.2269 58.6037 89.4037 59.5698 88.1892 59.5698C86.9746 59.5698 86.1649 58.6037 86.1649 57.5016ZM89.7681 57.5016C89.7681 56.5763 89.1068 55.828 88.1892 55.828C87.2715 55.828 86.6237 56.5627 86.6237 57.4744V57.488C86.6237 58.3996 87.285 59.148 88.2026 59.148C89.1203 59.148 89.7681 58.4132 89.7681 57.5016Z" fill="#B2282F"/>
</g>
<mask id="mask14_1_231" style="mask-type:luminance" maskUnits="userSpaceOnUse" x="-59" y="-33" width="260" height="148">
<path d="M200.426 -32.3565H-58.6759V114.595H200.426V-32.3565Z" fill="white"/>
</mask>
<g mask="url(#mask14_1_231)">
<path d="M91.3199 55.4742H91.7518L94.2618 58.6989V55.4742H94.6937V59.5017H94.3428L91.7653 56.1953V59.5017H91.3199V55.4742Z" fill="#B2282F"/>
</g>
<mask id="mask15_1_231" style="mask-type:luminance" maskUnits="userSpaceOnUse" x="-59" y="-33" width="260" height="148">
<path d="M200.426 -32.3565H-58.6759V114.595H200.426V-32.3565Z" fill="white"/>
</mask>
<g mask="url(#mask15_1_231)">
<path d="M97.0148 55.896H95.6788V55.4742H98.8097V55.896H97.4737V59.5017H97.0148V55.896Z" fill="#B2282F"/>
</g>
<mask id="mask16_1_231" style="mask-type:luminance" maskUnits="userSpaceOnUse" x="-59" y="-33" width="260" height="148">
<path d="M200.426 -32.3565H-58.6759V114.595H200.426V-32.3565Z" fill="white"/>
</mask>
<g mask="url(#mask16_1_231)">
<path d="M99.7948 55.4742H101.509C102.008 55.4742 102.386 55.6239 102.642 55.8824C102.845 56.0865 102.953 56.3586 102.953 56.6716V56.6852C102.953 57.3519 102.494 57.7465 101.873 57.8553L103.101 59.5017H102.548L101.387 57.937H101.374H100.24V59.5017H99.7948V55.4742ZM101.468 57.5288C102.062 57.5288 102.494 57.2158 102.494 56.6988V56.6852C102.494 56.1817 102.116 55.896 101.468 55.896H100.24V57.5288H101.468Z" fill="#B2282F"/>
</g>
<mask id="mask17_1_231" style="mask-type:luminance" maskUnits="userSpaceOnUse" x="-59" y="-33" width="260" height="148">
<path d="M200.426 -32.3565H-58.6759V114.595H200.426V-32.3565Z" fill="white"/>
</mask>
<g mask="url(#mask17_1_231)">
<path d="M108.512 57.5016C108.512 56.3586 109.363 55.4062 110.537 55.4062C111.265 55.4062 111.697 55.6647 112.089 56.0457L111.778 56.3722C111.441 56.0457 111.076 55.8144 110.523 55.8144C109.646 55.8144 108.985 56.5355 108.985 57.4608V57.4744C108.985 58.3996 109.646 59.1344 110.523 59.1344C111.076 59.1344 111.427 58.9167 111.805 58.5493L112.102 58.8486C111.697 59.2704 111.225 59.5562 110.51 59.5562C109.363 59.5698 108.512 58.6581 108.512 57.5016Z" fill="#B2282F"/>
</g>
<mask id="mask18_1_231" style="mask-type:luminance" maskUnits="userSpaceOnUse" x="-59" y="-33" width="260" height="148">
<path d="M200.426 -32.3565H-58.6759V114.595H200.426V-32.3565Z" fill="white"/>
</mask>
<g mask="url(#mask18_1_231)">
<path d="M114.086 55.896H112.75V55.4742H115.881V55.896H114.545V59.5017H114.086V55.896Z" fill="#B2282F"/>
</g>
<mask id="mask19_1_231" style="mask-type:luminance" maskUnits="userSpaceOnUse" x="-59" y="-33" width="260" height="148">
<path d="M200.426 -32.3565H-58.6759V114.595H200.426V-32.3565Z" fill="white"/>
</mask>
<g mask="url(#mask19_1_231)">
<path d="M117.352 55.4742H116.906V59.5017H117.352V55.4742Z" fill="#B2282F"/>
</g>
<mask id="mask20_1_231" style="mask-type:luminance" maskUnits="userSpaceOnUse" x="-59" y="-33" width="260" height="148">
<path d="M200.426 -32.3565H-58.6759V114.595H200.426V-32.3565Z" fill="white"/>
</mask>
<g mask="url(#mask20_1_231)">
<path d="M118.661 55.4742H119.079L121.589 58.6989V55.4742H122.034V59.5017H121.67L119.092 56.1953V59.5017H118.661V55.4742Z" fill="#B2282F"/>
</g>
<mask id="mask21_1_231" style="mask-type:luminance" maskUnits="userSpaceOnUse" x="-59" y="-33" width="260" height="148">
<path d="M200.426 -32.3565H-58.6759V114.595H200.426V-32.3565Z" fill="white"/>
</mask>
<g mask="url(#mask21_1_231)">
<path d="M123.127 57.5016C123.127 56.3858 123.937 55.4062 125.125 55.4062C125.799 55.4062 126.218 55.5967 126.609 55.9368L126.312 56.277C126.015 56.0048 125.651 55.8144 125.098 55.8144C124.221 55.8144 123.586 56.5627 123.586 57.4608V57.4744C123.586 58.4404 124.194 59.148 125.165 59.148C125.624 59.148 126.042 58.9711 126.312 58.7398V57.7329H125.098V57.3247H126.744V58.9303C126.38 59.2704 125.826 59.5426 125.138 59.5426C123.897 59.5698 123.127 58.6445 123.127 57.5016Z" fill="#B2282F"/>
</g>
<mask id="mask22_1_231" style="mask-type:luminance" maskUnits="userSpaceOnUse" x="-59" y="-33" width="260" height="148">
<path d="M200.426 -32.3565H-58.6759V114.595H200.426V-32.3565Z" fill="white"/>
</mask>
<g mask="url(#mask22_1_231)">
<path d="M56.0712 55.447H55.6529L53.8311 59.5017H54.2899L54.7622 58.4404L54.9376 58.0322L55.8553 55.9776L56.7595 58.0322L56.9349 58.4404L57.4072 59.5017H57.893L56.0712 55.447Z" fill="#B2282F"/>
</g>
<mask id="mask23_1_231" style="mask-type:luminance" maskUnits="userSpaceOnUse" x="-59" y="-33" width="260" height="148">
<path d="M200.426 -32.3565H-58.6759V114.595H200.426V-32.3565Z" fill="white"/>
</mask>
<g mask="url(#mask23_1_231)">
<path d="M105.948 55.447H105.53L103.708 59.5017H104.167L104.639 58.4404L104.815 58.0322L105.732 55.9776L106.637 58.0322L106.812 58.4404L107.284 59.5017H107.77L105.948 55.447Z" fill="#B2282F"/>
</g>
</g>
</g>
<defs>
<clipPath id="clip0_1_231">
<rect width="147" height="79" fill="white"/>
</clipPath>
</defs>
</svg>

<svg xmlns="http://www.w3.org/2000/svg" width="147" height="79" fill="none"><g clip-path="url(#a)"><mask id="b" width="260" height="148" x="-59" y="-33" maskUnits="userSpaceOnUse" style="mask-type:luminance"><path fill="#fff" d="M200.426-32.356H-58.676v146.951h259.102z"/></mask><g mask="url(#b)"><path fill="#B2282F" d="M45.06 22.682h5.114l14.628 21.172V22.682h4.413v27.975h-4.939l-14.79-21.552.013 21.552-4.44-.013z"/></g><mask id="c" width="260" height="148" x="-59" y="-33" maskUnits="userSpaceOnUse" style="mask-type:luminance"><path fill="#fff" d="M200.426-32.356H-58.676v146.951h259.102z"/></mask><g mask="url(#c)"><path fill="#B2282F" d="M100.321 22.655h5.182l8.016 12.45v.04l8.043-12.49h5.196V50.63h-4.413V29.417L115.557 39.8h-4.049l-6.774-10.381-.041 21.212-4.453.027z"/></g><mask id="d" width="260" height="148" x="-59" y="-33" maskUnits="userSpaceOnUse" style="mask-type:luminance"><path fill="#fff" d="M200.426-32.356H-58.676v146.951h259.102z"/></mask><g mask="url(#d)"><path fill="#B2282F" d="m31.646 22.737-4.305-.055-12.348 27.975h5.195l2.659-6.64 1.673-4.204 5.02-11.906 4.993 11.906 1.674 4.204 2.658 6.64h5.223z"/></g><mask id="e" width="260" height="148" x="-59" y="-33" maskUnits="userSpaceOnUse" style="mask-type:luminance"><path fill="#fff" d="M200.426-32.356H-58.676v146.951h259.102z"/></mask><g mask="url(#e)"><path fill="#B2282F" d="m86.867 22.914-4.332-.232L70.2 50.657h5.182l2.659-6.64 1.673-4.204 5.034-11.906 4.98 11.906 1.673 4.204 2.658 6.64h5.196z"/></g><mask id="f" width="260" height="148" x="-59" y="-33" maskUnits="userSpaceOnUse" style="mask-type:luminance"><path fill="#fff" d="M200.426-32.356H-58.676v146.951h259.102z"/></mask><g mask="url(#f)"><path fill="#B2282F" d="M47.138 55.896h-1.336v-.422h3.13v.422h-1.336v3.606h-.458z"/></g><mask id="g" width="260" height="148" x="-59" y="-33" maskUnits="userSpaceOnUse" style="mask-type:luminance"><path fill="#fff" d="M200.426-32.356H-58.676v146.951h259.102z"/></mask><g mask="url(#g)"><mask id="h" width="260" height="148" x="-59" y="-33" maskUnits="userSpaceOnUse" style="mask-type:luminance"><path fill="#fff" d="M200.426-32.356H-58.676v146.951h259.102z"/></mask><g mask="url(#h)"><path fill="#B2282F" d="M49.918 55.474h1.714c.499 0 .877.15 1.133.408.203.205.31.477.31.79v.013c0 .667-.458 1.061-1.08 1.17l1.229 1.647h-.567l-1.16-1.565h-1.134v1.565h-.445zm1.673 2.055c.594 0 1.026-.313 1.026-.83v-.014c0-.503-.378-.789-1.026-.789h-1.228v1.633z"/></g><mask id="i" width="260" height="148" x="-59" y="-33" maskUnits="userSpaceOnUse" style="mask-type:luminance"><path fill="#fff" d="M200.426-32.356H-58.676v146.951h259.102z"/></mask><g mask="url(#i)"><path fill="#B2282F" d="M58.81 55.474h1.39c1.256 0 2.12.871 2.12 2v.014c0 1.13-.864 2.014-2.12 2.014h-1.39zm1.39 3.606c1.013 0 1.66-.68 1.66-1.578v-.014c0-.885-.647-1.592-1.66-1.592h-.93v3.184z"/></g><mask id="j" width="260" height="148" x="-59" y="-33" maskUnits="userSpaceOnUse" style="mask-type:luminance"><path fill="#fff" d="M200.426-32.356H-58.676v146.951h259.102z"/></mask><g mask="url(#j)"><path fill="#B2282F" d="M63.885 55.474h-.445v4.028h.445z"/></g><mask id="k" width="260" height="148" x="-59" y="-33" maskUnits="userSpaceOnUse" style="mask-type:luminance"><path fill="#fff" d="M200.426-32.356H-58.676v146.951h259.102z"/></mask><g mask="url(#k)"><path fill="#B2282F" d="M65.194 55.474h.432l2.51 3.225v-3.225h.432v4.028h-.351l-2.578-3.307v3.307h-.445z"/></g><mask id="l" width="260" height="148" x="-59" y="-33" maskUnits="userSpaceOnUse" style="mask-type:luminance"><path fill="#fff" d="M200.426-32.356H-58.676v146.951h259.102z"/></mask><g mask="url(#l)"><path fill="#B2282F" d="M69.66 57.502c0-1.116.81-2.096 1.998-2.096.675 0 1.093.19 1.484.53l-.297.341c-.296-.272-.66-.463-1.214-.463-.877 0-1.511.749-1.511 1.647v.013c0 .966.607 1.674 1.578 1.674.46 0 .878-.177 1.147-.408v-1.007h-1.214v-.408h1.646v1.605c-.364.34-.917.613-1.606.613-1.241.027-2.01-.898-2.01-2.041"/></g><mask id="m" width="260" height="148" x="-59" y="-33" maskUnits="userSpaceOnUse" style="mask-type:luminance"><path fill="#fff" d="M200.426-32.356H-58.676v146.951h259.102z"/></mask><g mask="url(#m)"><path fill="#B2282F" d="M78.419 58.93c-.365.395-.783.626-1.31.626-.715 0-1.254-.449-1.254-1.13v-.013c0-.53.35-.911.958-1.156-.27-.327-.405-.558-.405-.885v-.013c0-.531.418-.953 1.053-.953.553 0 .971.408.971.912v.013c0 .517-.35.844-.944 1.048l.917.939c.176-.259.338-.558.473-.898l.364.177c-.175.38-.35.721-.58 1.007l.701.72-.337.26zm-.27-.285-1.066-1.116c-.526.204-.77.517-.77.857v.014c0 .435.338.762.837.762.378.013.702-.19.999-.517m-.122-2.3a.556.556 0 0 0-.566-.572c-.365 0-.608.26-.608.586v.013c0 .231.095.422.405.735.513-.177.77-.408.77-.762"/></g><mask id="n" width="260" height="148" x="-59" y="-33" maskUnits="userSpaceOnUse" style="mask-type:luminance"><path fill="#fff" d="M200.426-32.356H-58.676v146.951h259.102z"/></mask><g mask="url(#n)"><path fill="#B2282F" d="M81.82 57.502c0-1.143.85-2.096 2.024-2.096.729 0 1.16.259 1.552.64l-.31.326c-.338-.326-.702-.558-1.256-.558-.877 0-1.538.721-1.538 1.647v.013c0 .926.661 1.66 1.538 1.66.554 0 .904-.217 1.282-.585l.297.3c-.405.421-.877.707-1.592.707-1.147.014-1.997-.898-1.997-2.054"/></g><mask id="o" width="260" height="148" x="-59" y="-33" maskUnits="userSpaceOnUse" style="mask-type:luminance"><path fill="#fff" d="M200.426-32.356H-58.676v146.951h259.102z"/></mask><g mask="url(#o)"><path fill="#B2282F" d="M86.165 57.502c0-1.116.823-2.096 2.038-2.096s2.024.966 2.024 2.068v.014c0 1.116-.823 2.082-2.038 2.082s-2.024-.966-2.024-2.068m3.603 0c0-.926-.661-1.674-1.579-1.674s-1.565.735-1.565 1.646v.014c0 .912.661 1.66 1.579 1.66s1.565-.735 1.565-1.646"/></g><mask id="p" width="260" height="148" x="-59" y="-33" maskUnits="userSpaceOnUse" style="mask-type:luminance"><path fill="#fff" d="M200.426-32.356H-58.676v146.951h259.102z"/></mask><g mask="url(#p)"><path fill="#B2282F" d="M91.32 55.474h.432l2.51 3.225v-3.225h.432v4.028h-.351l-2.578-3.307v3.307h-.445z"/></g><mask id="q" width="260" height="148" x="-59" y="-33" maskUnits="userSpaceOnUse" style="mask-type:luminance"><path fill="#fff" d="M200.426-32.356H-58.676v146.951h259.102z"/></mask><g mask="url(#q)"><path fill="#B2282F" d="M97.015 55.896h-1.336v-.422h3.13v.422h-1.335v3.606h-.46z"/></g><mask id="r" width="260" height="148" x="-59" y="-33" maskUnits="userSpaceOnUse" style="mask-type:luminance"><path fill="#fff" d="M200.426-32.356H-58.676v146.951h259.102z"/></mask><g mask="url(#r)"><path fill="#B2282F" d="M99.795 55.474h1.714c.499 0 .877.15 1.133.408.203.205.311.477.311.79v.013c0 .667-.459 1.061-1.08 1.17l1.228 1.647h-.553l-1.161-1.565h-1.147v1.565h-.445zm1.673 2.055c.594 0 1.026-.313 1.026-.83v-.014c0-.503-.378-.789-1.026-.789h-1.228v1.633z"/></g><mask id="s" width="260" height="148" x="-59" y="-33" maskUnits="userSpaceOnUse" style="mask-type:luminance"><path fill="#fff" d="M200.426-32.356H-58.676v146.951h259.102z"/></mask><g mask="url(#s)"><path fill="#B2282F" d="M108.512 57.502c0-1.143.851-2.096 2.025-2.096.728 0 1.16.259 1.552.64l-.311.326c-.337-.326-.702-.558-1.255-.558-.877 0-1.538.721-1.538 1.647v.013c0 .926.661 1.66 1.538 1.66.553 0 .904-.217 1.282-.585l.297.3c-.405.421-.877.707-1.592.707-1.147.014-1.998-.898-1.998-2.054"/></g><mask id="t" width="260" height="148" x="-59" y="-33" maskUnits="userSpaceOnUse" style="mask-type:luminance"><path fill="#fff" d="M200.426-32.356H-58.676v146.951h259.102z"/></mask><g mask="url(#t)"><path fill="#B2282F" d="M114.086 55.896h-1.336v-.422h3.131v.422h-1.336v3.606h-.459z"/></g><mask id="u" width="260" height="148" x="-59" y="-33" maskUnits="userSpaceOnUse" style="mask-type:luminance"><path fill="#fff" d="M200.426-32.356H-58.676v146.951h259.102z"/></mask><g mask="url(#u)"><path fill="#B2282F" d="M117.352 55.474h-.446v4.028h.446z"/></g><mask id="v" width="260" height="148" x="-59" y="-33" maskUnits="userSpaceOnUse" style="mask-type:luminance"><path fill="#fff" d="M200.426-32.356H-58.676v146.951h259.102z"/></mask><g mask="url(#v)"><path fill="#B2282F" d="M118.661 55.474h.418l2.51 3.225v-3.225h.445v4.028h-.364l-2.578-3.307v3.307h-.431z"/></g><mask id="w" width="260" height="148" x="-59" y="-33" maskUnits="userSpaceOnUse" style="mask-type:luminance"><path fill="#fff" d="M200.426-32.356H-58.676v146.951h259.102z"/></mask><g mask="url(#w)"><path fill="#B2282F" d="M123.127 57.502c0-1.116.81-2.096 1.998-2.096.674 0 1.093.19 1.484.53l-.297.341c-.297-.272-.661-.463-1.214-.463-.877 0-1.512.749-1.512 1.647v.013c0 .966.608 1.674 1.579 1.674.459 0 .877-.177 1.147-.408v-1.007h-1.214v-.408h1.646v1.605c-.364.34-.918.613-1.606.613-1.241.027-2.011-.898-2.011-2.041"/></g><mask id="x" width="260" height="148" x="-59" y="-33" maskUnits="userSpaceOnUse" style="mask-type:luminance"><path fill="#fff" d="M200.426-32.356H-58.676v146.951h259.102z"/></mask><g mask="url(#x)"><path fill="#B2282F" d="M56.071 55.447h-.418l-1.822 4.055h.459l.472-1.062.176-.408.917-2.054.905 2.054.175.408.472 1.062h.486z"/></g><mask id="y" width="260" height="148" x="-59" y="-33" maskUnits="userSpaceOnUse" style="mask-type:luminance"><path fill="#fff" d="M200.426-32.356H-58.676v146.951h259.102z"/></mask><g mask="url(#y)"><path fill="#B2282F" d="M105.948 55.447h-.418l-1.822 4.055h.459l.472-1.062.176-.408.917-2.054.905 2.054.175.408.472 1.062h.486z"/></g></g></g><defs><clipPath id="a"><path fill="#fff" d="M0 0h147v79H0z"/></clipPath></defs></svg>
